img/icons/svg/icon__user.svg

<svg width="18" height="18" fill="none" xmlns="http://www.w3.org/2000/svg">
  <g fill="#000">
    <path d="M9.00038 8.80318C11.0017 8.80318 12.6242 6.83254 12.6242 4.40162 12.6242 1.97064 12.0915 0 9.00038 0 5.90926 0 5.37646 1.97064 5.37646 4.40162 5.37646 6.83254 6.99898 8.80318 9.00038 8.80318zM2.1555 15.5239C2.15488 15.3757 2.15426 15.4822 2.1555 15.5239V15.5239zM15.8445 15.6395C15.8464 15.599 15.8451 15.358 15.8445 15.6395V15.6395z"/>
    <path d="M15.8369 15.3463C15.7698 11.1116 15.2167 9.90493 10.9845 9.14111C10.9845 9.14111 10.3888 9.90025 9.0002 9.90025C7.61163 9.90025 7.01577 9.14111 7.01577 9.14111C2.82975 9.8966 2.24305 11.0854 2.16591 15.2088C2.15958 15.5455 2.15665 15.5632 2.15552 15.5241C2.15577 15.5973 2.15608 15.7328 2.15608 15.969C2.15608 15.969 3.16367 18.0002 9.0002 18.0002C14.8366 18.0002 15.8443 15.969 15.8443 15.969C15.8443 15.8172 15.8444 15.7117 15.8446 15.6399C15.8434 15.6641 15.8412 15.6172 15.8369 15.3463Z"/>
  </g>
</svg>

<svg width="18" height="18" fill="none" xmlns="http://www.w3.org/2000/svg"><path d="M9 8.803c2.002 0 3.624-1.97 3.624-4.401S12.091 0 9 0C5.91 0 5.376 1.97 5.376 4.402 5.376 6.832 7 8.803 9 8.803zm-6.845 6.72c0-.147 0-.04 0 0zm13.69.117c.001-.041 0-.282 0 0zm-.008-.294c-.067-4.234-.62-5.441-4.852-6.205 0 0-.596.76-1.985.76-1.388 0-1.984-.76-1.984-.76-4.186.756-4.773 1.944-4.85 6.068-.006.337-.01.354-.01.315v.445S3.164 18 9 18c5.837 0 6.844-2.031 6.844-2.031v-.33c0 .025-.003-.022-.007-.293z" fill="#000"/></svg>
